actions/22/shutdown_highlight.svg

<?xml version="1.0" encoding="UTF-8" standalone="no"?>
<svg
   xmlns:dc="http://purl.org/dc/elements/1.1/"
   xmlns:cc="http://creativecommons.org/ns#"
   xmlns:rdf="http://www.w3.org/1999/02/22-rdf-syntax-ns#"
   xmlns:svg="http://www.w3.org/2000/svg"
   xmlns="http://www.w3.org/2000/svg"
   xmlns:sodipodi="http://sodipodi.sourceforge.net/DTD/sodipodi-0.dtd"
   xmlns:inkscape="http://www.inkscape.org/namespaces/inkscape"
   height="16"
   width="16"
   version="1.1"
   id="svg8"
   sodipodi:docname="shutdown_highlight.svg"
   inkscape:version="0.92.2pre0 (973e216, 2017-07-25)">
  <metadata
     id="metadata14">
    <rdf:RDF>
      <cc:Work
         rdf:about="">
        <dc:format>image/svg+xml</dc:format>
        <dc:type
           rdf:resource="http://purl.org/dc/dcmitype/StillImage" />
      </cc:Work>
    </rdf:RDF>
  </metadata>
  <defs
     id="defs12" />
  <sodipodi:namedview
     pagecolor="#ffffff"
     bordercolor="#666666"
     borderopacity="1"
     objecttolerance="10"
     gridtolerance="10"
     guidetolerance="10"
     inkscape:pageopacity="0"
     inkscape:pageshadow="2"
     inkscape:window-width="1920"
     inkscape:window-height="1001"
     id="namedview10"
     showgrid="false"
     inkscape:zoom="14.75"
     inkscape:cx="8"
     inkscape:cy="8"
     inkscape:window-x="0"
     inkscape:window-y="0"
     inkscape:window-maximized="1"
     inkscape:current-layer="svg8" />
  <g
     color="#000"
     transform="translate(-52 -320)"
     id="g6"
     style="fill:#808080;fill-opacity:1">
    <path
       d="M53 327.92a6.94 6.94 0 0 0 .324 2.201A7.004 7.004 0 0 0 60 335a7.004 7.004 0 0 0 6.676-4.879 6.978 6.978 0 0 0-2.662-7.818l-1.145 1.64a4.96 4.96 0 0 1 1.9 5.575A4.99 4.99 0 0 1 60 333a4.99 4.99 0 0 1-4.77-3.482 4.96 4.96 0 0 1 1.9-5.575l-1.144-1.64A6.985 6.985 0 0 0 53 327.92z"
       fill="gray"
       font-family="sans-serif"
       font-weight="400"
       overflow="visible"
       style="line-height:normal;font-variant-ligatures:normal;font-variant-position:normal;font-variant-caps:normal;font-variant-numeric:normal;font-variant-alternates:normal;font-feature-settings:normal;text-indent:0;text-align:start;text-decoration-line:none;text-decoration-style:solid;text-decoration-color:#000;text-transform:none;text-orientation:mixed;shape-padding:0;isolation:auto;mix-blend-mode:normal;fill:#808080;fill-opacity:1"
       white-space="normal"
       id="path2" />
    <path
       d="M59 321v7h2v-7.25z"
       fill="gray"
       font-family="sans-serif"
       font-weight="400"
       overflow="visible"
       style="line-height:normal;font-variant-ligatures:none;font-variant-position:normal;font-variant-caps:normal;font-variant-numeric:normal;font-variant-alternates:normal;font-feature-settings:normal;text-indent:0;text-align:start;text-decoration-line:none;text-decoration-style:solid;text-decoration-color:#000;text-transform:none;shape-padding:0;isolation:auto;mix-blend-mode:normal;marker:none;fill:#808080;fill-opacity:1"
       white-space="normal"
       id="path4" />
  </g>
</svg>

<svg xmlns="http://www.w3.org/2000/svg" width="16" height="16" version="1.1">
 <g style="fill:#808080" transform="translate(-52,-320)">
  <path style="fill:#808080" d="M 53,327.92 A 6.94,6.94 0 0 0 53.324,330.12 7.004,7.004 0 0 0 60,335 7.004,7.004 0 0 0 66.676,330.12 6.978,6.978 0 0 0 64.014,322.3 L 62.869,323.94 A 4.96,4.96 0 0 1 64.769,329.52 4.99,4.99 0 0 1 60,333 4.99,4.99 0 0 1 55.23,329.52 4.96,4.96 0 0 1 57.13,323.94 L 55.986,322.3 A 6.985,6.985 0 0 0 53,327.92 Z"/>
  <path style="fill:#808080" d="M 59,321 V 328 H 61 V 320.75 Z"/>
 </g>
</svg>
